www/assets/icons/add_home_work.svg

<svg xmlns="http://www.w3.org/2000/svg" width="24" height="24" viewBox="0 0 24 24" fill='currentColor'><path d="M15 10.68V10L8 5l-7 5v10h5v-6h4v6h1.68c-.43-.91-.68-1.92-.68-3 0-2.79 1.64-5.19 4-6.32m8 1.43V2H10v1.97l7 5v1.11c.33-.05.66-.08 1-.08 1.96 0 3.73.81 5 2.11M17 6h2v2h-2z"/><path d="M23 17c0-2.76-2.24-5-5-5s-5 2.24-5 5 2.24 5 5 5 5-2.24 5-5m-5.5 3v-2.5H15v-1h2.5V14h1v2.5H21v1h-2.5V20z"/></svg>

<svg width="24" height="24" viewBox="0 0 24 24" xmlns="http://www.w3.org/2000/svg" fill='currentColor'><path d="M15 10.68V10L8 5L1 10V20H6V14H10V20H11.68C11.25 19.09 11 18.08 11 17C11 14.21 12.64 11.81 15 10.68Z"/><path d="M23 12.11V2H10V3.97L17 8.97V10.08C17.33 10.03 17.66 10 18 10C19.96 10 21.73 10.81 23 12.11ZM17 6H19V8H17V6Z"/><path d="M23 17C23 14.24 20.76 12 18 12C15.24 12 13 14.24 13 17C13 19.76 15.24 22 18 22C20.76 22 23 19.76 23 17ZM17.5 20V17.5H15V16.5H17.5V14H18.5V16.5H21V17.5H18.5V20H17.5Z"/></svg>
